dolphin.svg

<svg fill="currentColor" viewBox="0 0 24 24"><path d="M20 7s0-4-5-4c-1.53 0-2.85.19-4 .5-.5-.44-3.74-3.191-7 .07l2.56 2.56C2.5 10.53 4 18 4 18s-3 0-3 4l4-1 4 1c0-4-3-4-3-4s.85-5.76 7-6.82V14c2 0 2.68-1.81 2.89-3H18c4 0 5-1 5-2s-2-2-3-2m-2 1c-.55 0-1-.45-1-1s.45-1 1-1 1 .45 1 1-.45 1-1 1"/></svg>

<svg  viewBox="0 0 24 24" fill="currentColor"><path  d="M20 7C20 7 20 3 15 3C13.47 3 12.15 3.19 11 3.5C10.5 3.06 7.26 .309 4 3.57L6.56 6.13C2.5 10.53 4 18 4 18S1 18 1 22C1 22 5 21 5 21C5 21 9 22 9 22C9 18 6 18 6 18S6.85 12.24 13 11.18V14C15 14 15.68 12.19 15.89 11H18C22 11 23 10 23 9S21 7 20 7M18 8C17.45 8 17 7.55 17 7S17.45 6 18 6 19 6.45 19 7 18.55 8 18 8Z"/></svg>
